X: 140
T: Yujia le
%%abc-version 2.0
%%abcx-abcm2ps-target-version 5.9.1 (29 Sep 2008)
%%abc-creator hum2abc beta
%%abcx-conversion-date 2013/10/02 07:52:29
%%abc-edited-by Helmut Schaffrath
%%humdrum-veritas 2973400744
%%humdrum-veritas-data 884365343
%%continueall 1
%%barnumbers 0
L: 1/8
M: 2/4
K: F
c2c2 [I:setbarnb 1]| 
c2A c | 
d e d c | 
d4 | 
f2f d | 
c d c A | 
G A G F | 
G4 | 
c2c A | 
c d c A | 
G2A G | 
F3D | 
F G A c | 
G F E D | 
C3D | 
C4 |]  



